svg/aws-ec2-g3.svg

<?xml version="1.0" encoding="UTF-8"?>
<svg xmlns="http://www.w3.org/2000/svg" xmlns:xlink="http://www.w3.org/1999/xlink" width="32" height="32" viewBox="0 0 32 32">
<path fill-rule="evenodd" fill="rgb(83.137255%, 35.686275%, 2.745098%)" fill-opacity="1" d="M 18.902344 19.386719 C 18.296875 19.386719 17.699219 19.261719 17.148438 19.015625 L 17.148438 18.136719 C 17.828125 18.367188 18.402344 18.484375 18.863281 18.484375 C 19.304688 18.484375 19.640625 18.382812 19.878906 18.1875 C 20.117188 17.992188 20.238281 17.714844 20.238281 17.351562 C 20.238281 16.667969 19.804688 16.328125 18.941406 16.328125 C 18.664062 16.328125 18.363281 16.347656 18.042969 16.382812 L 18.042969 15.664062 L 19.882812 13.667969 L 17.242188 13.667969 L 17.242188 12.78125 L 21.097656 12.78125 L 21.097656 13.628906 L 19.15625 15.535156 C 19.242188 15.527344 19.328125 15.523438 19.414062 15.523438 C 19.777344 15.523438 20.105469 15.601562 20.398438 15.753906 C 20.695312 15.90625 20.929688 16.121094 21.105469 16.402344 C 21.277344 16.679688 21.367188 17.003906 21.367188 17.363281 C 21.367188 17.753906 21.265625 18.101562 21.066406 18.40625 C 20.867188 18.710938 20.582031 18.953125 20.210938 19.125 C 19.835938 19.300781 19.402344 19.386719 18.902344 19.386719 M 11.449219 18.511719 C 10.90625 17.945312 10.632812 17.125 10.632812 16.058594 C 10.632812 14.964844 10.914062 14.132812 11.472656 13.550781 C 12.03125 12.96875 12.832031 12.679688 13.882812 12.679688 C 14.589844 12.679688 15.21875 12.804688 15.765625 13.0625 L 15.765625 13.964844 C 15.113281 13.746094 14.511719 13.636719 13.960938 13.636719 C 13.222656 13.636719 12.679688 13.824219 12.324219 14.199219 C 11.96875 14.570312 11.789062 15.152344 11.789062 15.945312 L 11.789062 16.140625 C 11.789062 16.917969 11.964844 17.488281 12.316406 17.851562 C 12.667969 18.214844 13.222656 18.398438 13.976562 18.398438 C 14.273438 18.398438 14.566406 18.371094 14.851562 18.316406 L 14.851562 16.605469 L 13.515625 16.605469 L 13.515625 15.710938 L 15.992188 15.710938 L 15.992188 18.882812 C 15.707031 19.035156 15.375 19.152344 14.992188 19.234375 C 14.605469 19.316406 14.207031 19.359375 13.8125 19.359375 C 12.777344 19.359375 11.988281 19.078125 11.449219 18.511719 M 6 26 L 26 26 L 26 6 L 6 6 Z M 30.667969 8.667969 L 30.667969 7.332031 L 27.332031 7.332031 L 27.332031 5.332031 C 27.332031 4.964844 27.035156 4.667969 26.667969 4.667969 L 24.667969 4.667969 L 24.667969 1.332031 L 23.332031 1.332031 L 23.332031 4.667969 L 20.667969 4.667969 L 20.667969 1.332031 L 19.332031 1.332031 L 19.332031 4.667969 L 16.667969 4.667969 L 16.667969 1.332031 L 15.332031 1.332031 L 15.332031 4.667969 L 12.667969 4.667969 L 12.667969 1.332031 L 11.332031 1.332031 L 11.332031 4.667969 L 8.667969 4.667969 L 8.667969 1.332031 L 7.332031 1.332031 L 7.332031 4.667969 L 5.332031 4.667969 C 4.964844 4.667969 4.667969 4.964844 4.667969 5.332031 L 4.667969 7.332031 L 1.332031 7.332031 L 1.332031 8.667969 L 4.667969 8.667969 L 4.667969 11.332031 L 1.332031 11.332031 L 1.332031 12.667969 L 4.667969 12.667969 L 4.667969 15.332031 L 1.332031 15.332031 L 1.332031 16.667969 L 4.667969 16.667969 L 4.667969 19.332031 L 1.332031 19.332031 L 1.332031 20.667969 L 4.667969 20.667969 L 4.667969 23.332031 L 1.332031 23.332031 L 1.332031 24.667969 L 4.667969 24.667969 L 4.667969 26.667969 C 4.667969 27.035156 4.964844 27.332031 5.332031 27.332031 L 7.332031 27.332031 L 7.332031 30.667969 L 8.667969 30.667969 L 8.667969 27.332031 L 11.332031 27.332031 L 11.332031 30.667969 L 12.667969 30.667969 L 12.667969 27.332031 L 15.332031 27.332031 L 15.332031 30.667969 L 16.667969 30.667969 L 16.667969 27.332031 L 19.332031 27.332031 L 19.332031 30.667969 L 20.667969 30.667969 L 20.667969 27.332031 L 23.332031 27.332031 L 23.332031 30.667969 L 24.667969 30.667969 L 24.667969 27.332031 L 26.667969 27.332031 C 27.035156 27.332031 27.332031 27.035156 27.332031 26.667969 L 27.332031 24.667969 L 30.667969 24.667969 L 30.667969 23.332031 L 27.332031 23.332031 L 27.332031 20.667969 L 30.667969 20.667969 L 30.667969 19.332031 L 27.332031 19.332031 L 27.332031 16.667969 L 30.667969 16.667969 L 30.667969 15.332031 L 27.332031 15.332031 L 27.332031 12.667969 L 30.667969 12.667969 L 30.667969 11.332031 L 27.332031 11.332031 L 27.332031 8.667969 Z M 30.667969 8.667969 "/>
</svg>

<svg role="img" viewBox="0 0 32 32" xmlns="http://www.w3.org/2000/svg"><path d="M18.902 19.387a4.3 4.3 0 0 1-1.754-.371v-.88q1.022.347 1.715.348c.442 0 .778-.101 1.016-.297q.358-.291.36-.835-.001-1.025-1.298-1.024-.417.001-.898.055v-.719l1.84-1.996h-2.64v-.887h3.855v.848l-1.942 1.906q.129-.012.258-.012.544.002.984.23.445.228.707.65c.172.277.262.6.262.96q0 .586-.3 1.043-.3.46-.856.719-.56.263-1.309.262m-7.453-.875q-.815-.852-.816-2.453c0-1.094.281-1.926.84-2.508q.835-.872 2.41-.871c.707 0 1.336.125 1.883.383v.902q-.979-.328-1.805-.328-1.105 0-1.637.562-.534.556-.535 1.746v.196q0 1.166.527 1.71.53.547 1.66.547.446 0 .876-.082v-1.71h-1.336v-.895h2.476v3.172q-.426.229-1 .351a5.4 5.4 0 0 1-1.18.125q-1.554.002-2.363-.847M6 26h20V6H6ZM30.668 8.668V7.332h-3.336v-2a.664.664 0 0 0-.664-.664h-2V1.332h-1.336v3.336h-2.664V1.332h-1.336v3.336h-2.664V1.332h-1.336v3.336h-2.664V1.332h-1.336v3.336H8.668V1.332H7.332v3.336h-2a.664.664 0 0 0-.664.664v2H1.332v1.336h3.336v2.664H1.332v1.336h3.336v2.664H1.332v1.336h3.336v2.664H1.332v1.336h3.336v2.664H1.332v1.336h3.336v2c0 .367.297.664.664.664h2v3.336h1.336v-3.336h2.664v3.336h1.336v-3.336h2.664v3.336h1.336v-3.336h2.664v3.336h1.336v-3.336h2.664v3.336h1.336v-3.336h2a.664.664 0 0 0 .664-.664v-2h3.336v-1.336h-3.336v-2.664h3.336v-1.336h-3.336v-2.664h3.336v-1.336h-3.336v-2.664h3.336v-1.336h-3.336V8.668Zm0 0" fill="rgb(83.137256%, 35.686275%, 2.745098%)" fill-rule="evenodd"/></svg>
